images/CanYa.svg

<svg height="250" viewBox="0 0 250 250" width="250" xmlns="http://www.w3.org/2000/svg"><g fill="#fff"><path d="m388.001132 205.199997c0 100.958398-81.842737 182.801135-182.801135 182.801135-100.958399 0-182.801135-81.842737-182.801135-182.801135 0-100.958399 81.842736-182.801135 182.801135-182.801135 100.958398 0 182.801135 81.842736 182.801135 182.801135zm0 0" stroke="#000" stroke-miterlimit="10" transform="scale(.609162)"/><path d="m99.050781 12.304688-.246093.121093c.183593.183594.429687.304688.609374.488281zm0 0"/><path d="m102.828125 29.058594-.183594.121094c.183594.121093.363281.242187.546875.425781zm0 0"/></g><path d="m125 0c-69.019531 0-125 55.980469-125 125s55.980469 125 125 125 125-55.980469 125-125-55.980469-125-125-125zm-59.027344 190.910156c-7.433594-8.222656-13.097656-17.910156-17.058594-29.054687-3.957031-11.148438-5.90625-23.148438-5.90625-36.003907 0-13.21875 1.949219-25.460937 5.90625-36.730468 3.414063-9.746094 8.101563-18.398438 14.074219-26.011719.242188-.304687.488281-.609375.730469-.914063.730469-.914062 1.460938-1.765624 2.191406-2.621093.914063-1.035157 1.890625-2.070313 2.863282-3.105469.0625-.058594.121093-.121094.183593-.183594.792969-.789062 1.644531-1.582031 2.4375-2.375.242188-.242187.488281-.425781.730469-.667968.609375-.550782 1.21875-1.097657 1.828125-1.585938.304687-.242188.546875-.488281.851563-.730469.609374-.488281 1.21875-.972656 1.828124-1.460937.304688-.246094.609376-.425782.914063-.671875.242187-.183594.488281-.363281.730469-.546875h.0625c4.507812-3.289063 9.441406-6.09375 14.863281-8.46875 10.78125-4.75 22.964844-7.1875 36.488281-7.1875 9.746094 0 18.945313 1.402344 27.59375 4.203125 8.652344 2.800781 16.386719 6.882812 23.269532 12.246093 3.414062 2.679688 6.457031 5.601563 9.261718 8.890626 2.863282 3.351562 5.421875 7.007812 7.675782 11.027343 4.445312 7.917969 7.246093 16.996094 8.40625 27.230469h-20.714844c-8.710938 0-16.6875-4.691406-21.257813-12.125 0-.058594-.0625-.058594-.0625-.121094-2.3125-3.714844-5.175781-6.941406-8.648437-9.746094-3.472656-2.800781-7.371094-4.996093-11.757813-6.578124-4.019531-1.460938-8.164062-2.191407-12.488281-2.316407-.425781 0-.789062 0-1.21875 0-8.769531 0-16.140625 1.707031-22.234375 5.058594-6.089844 3.347656-11.023437 7.917969-14.863281 13.582031-.425782.671875-.851563 1.339844-1.277344 2.011719-.304688.488281-.550781.914063-.792969 1.402344-.121093.179687-.242187.363281-.304687.546875-.363282.609375-.667969 1.21875-.972656 1.886718 0 .0625-.0625.0625-.0625.125-.367188.667969-.671876 1.339844-.976563 2.070313-1.582031 3.53125-2.921875 7.371094-3.898437 11.390625-1.703126 7.25-2.617188 14.742188-2.617188 22.476562 0 7.433594.851562 14.621094 2.617188 21.625 1.707031 7.007813 4.507812 13.34375 8.285156 18.945313 3.777344 5.605469 8.710937 10.113281 14.863281 13.464844 6.09375 3.410156 13.523437 5.054687 22.234375 5.054687h1.523438c-14.863282 10.660156-33.015626 16.996094-52.628907 17.238282-4.632812-3.289063-8.894531-7.066407-12.671875-11.269532zm133.773438-15.59375c-4.144532 8.894532-9.566406 16.507813-16.328125 22.78125-6.761719 6.277344-14.679688 11.027344-23.757813 14.316406-8.285156 2.984376-17.300781 4.628907-27.105468 4.875-.914063 0-1.890626.058594-2.863282.058594-.183594 0-.367187 0-.550781 0-9.195313-.058594-17.726563-1.15625-25.644531-3.410156 17.421875-5.117188 32.710937-15.167969 44.226562-28.570312 1.460938-1.703126 2.921875-3.53125 4.261719-5.359376 1.21875-1.402343 2.5-2.800781 3.777344-4.144531.609375-.546875 1.21875-1.15625 1.765625-1.765625 0-.058594.0625-.058594.0625-.121094 2.742187-2.621093 5.605468-5.117187 8.589844-7.433593 11.695312-8.890625 25.585937-15.105469 40.753906-17.601563-1.097656 9.683594-3.472656 18.457032-7.1875 26.375zm0 0" fill="#3cf"/></svg>

<!-- Generator: Adobe Illustrator 22.0.1, SVG Export Plug-In . SVG Version: 6.00 Build 0)  -->
<svg xmlns="http://www.w3.org/2000/svg" xmlns:xlink="http://www.w3.org/1999/xlink" width="250px" height="250px" viewBox="0 0 250 250" version="1.1">
<g id="surface1">
<path style="fill-rule:nonzero;fill:rgb(100%,100%,100%);fill-opacity:1;stroke-width:1;stroke-linecap:butt;stroke-linejoin:miter;stroke:rgb(0%,0%,0%);stroke-opacity:1;stroke-miterlimit:10;" d="M 388.001132 205.199997 C 388.001132 306.158395 306.158395 388.001132 205.199997 388.001132 C 104.241598 388.001132 22.398862 306.158395 22.398862 205.199997 C 22.398862 104.241598 104.241598 22.398862 205.199997 22.398862 C 306.158395 22.398862 388.001132 104.241598 388.001132 205.199997 Z M 388.001132 205.199997 " transform="matrix(0.609162,0,0,0.609162,0,0)"/>
<path style=" stroke:none;fill-rule:nonzero;fill:rgb(100%,100%,100%);fill-opacity:1;" d="M 99.050781 12.304688 L 98.804688 12.425781 C 98.988281 12.609375 99.234375 12.730469 99.414062 12.914062 Z M 99.050781 12.304688 "/>
<path style=" stroke:none;fill-rule:nonzero;fill:rgb(100%,100%,100%);fill-opacity:1;" d="M 102.828125 29.058594 L 102.644531 29.179688 C 102.828125 29.300781 103.007812 29.421875 103.191406 29.605469 Z M 102.828125 29.058594 "/>
<path style=" stroke:none;fill-rule:nonzero;fill:rgb(20%,80.000001%,100%);fill-opacity:1;" d="M 125 0 C 55.980469 0 0 55.980469 0 125 C 0 194.019531 55.980469 250 125 250 C 194.019531 250 250 194.019531 250 125 C 250 55.980469 194.019531 0 125 0 Z M 65.972656 190.910156 C 58.539062 182.6875 52.875 173 48.914062 161.855469 C 44.957031 150.707031 43.007812 138.707031 43.007812 125.851562 C 43.007812 112.632812 44.957031 100.390625 48.914062 89.121094 C 52.328125 79.375 57.015625 70.722656 62.988281 63.109375 C 63.230469 62.804688 63.476562 62.5 63.71875 62.195312 C 64.449219 61.28125 65.179688 60.429688 65.910156 59.574219 C 66.824219 58.539062 67.800781 57.503906 68.773438 56.46875 C 68.835938 56.410156 68.894531 56.347656 68.957031 56.285156 C 69.75 55.496094 70.601562 54.703125 71.394531 53.910156 C 71.636719 53.667969 71.882812 53.484375 72.125 53.242188 C 72.734375 52.691406 73.34375 52.144531 73.953125 51.65625 C 74.257812 51.414062 74.5 51.167969 74.804688 50.925781 C 75.414062 50.4375 76.023438 49.953125 76.632812 49.464844 C 76.9375 49.21875 77.242188 49.039062 77.546875 48.792969 C 77.789062 48.609375 78.035156 48.429688 78.277344 48.246094 C 78.277344 48.246094 78.277344 48.246094 78.339844 48.246094 C 82.847656 44.957031 87.78125 42.152344 93.203125 39.777344 C 103.984375 35.027344 116.167969 32.589844 129.691406 32.589844 C 139.4375 32.589844 148.636719 33.992188 157.285156 36.792969 C 165.9375 39.59375 173.671875 43.675781 180.554688 49.039062 C 183.96875 51.71875 187.011719 54.640625 189.816406 57.929688 C 192.679688 61.28125 195.238281 64.9375 197.492188 68.957031 C 201.9375 76.875 204.738281 85.953125 205.898438 96.1875 L 185.183594 96.1875 C 176.472656 96.1875 168.496094 91.496094 163.925781 84.0625 C 163.925781 84.003906 163.863281 84.003906 163.863281 83.941406 C 161.550781 80.226562 158.6875 77 155.214844 74.195312 C 151.742188 71.394531 147.84375 69.199219 143.457031 67.617188 C 139.4375 66.15625 135.292969 65.425781 130.96875 65.300781 C 130.542969 65.300781 130.179688 65.300781 129.75 65.300781 C 120.980469 65.300781 113.609375 67.007812 107.515625 70.359375 C 101.425781 73.707031 96.492188 78.277344 92.652344 83.941406 C 92.226562 84.613281 91.800781 85.28125 91.375 85.953125 C 91.070312 86.441406 90.824219 86.867188 90.582031 87.355469 C 90.460938 87.535156 90.339844 87.71875 90.277344 87.902344 C 89.914062 88.511719 89.609375 89.121094 89.304688 89.789062 C 89.304688 89.851562 89.242188 89.851562 89.242188 89.914062 C 88.875 90.582031 88.570312 91.253906 88.265625 91.984375 C 86.683594 95.515625 85.34375 99.355469 84.367188 103.375 C 82.664062 110.625 81.75 118.117188 81.75 125.851562 C 81.75 133.285156 82.601562 140.472656 84.367188 147.476562 C 86.074219 154.484375 88.875 160.820312 92.652344 166.421875 C 96.429688 172.027344 101.363281 176.535156 107.515625 179.886719 C 113.609375 183.296875 121.039062 184.941406 129.75 184.941406 C 130.238281 184.941406 130.785156 184.941406 131.273438 184.941406 C 116.410156 195.601562 98.257812 201.9375 78.644531 202.179688 C 74.011719 198.890625 69.75 195.113281 65.972656 190.910156 Z M 199.746094 175.316406 C 195.601562 184.210938 190.179688 191.824219 183.417969 198.097656 C 176.65625 204.375 168.738281 209.125 159.660156 212.414062 C 151.375 215.398438 142.359375 217.042969 132.554688 217.289062 C 131.640625 217.289062 130.664062 217.347656 129.691406 217.347656 C 129.507812 217.347656 129.324219 217.347656 129.140625 217.347656 C 119.945312 217.289062 111.414062 216.191406 103.496094 213.9375 C 120.917969 208.820312 136.207031 198.769531 147.722656 185.367188 C 149.183594 183.664062 150.644531 181.835938 151.984375 180.007812 C 153.203125 178.605469 154.484375 177.207031 155.761719 175.863281 C 156.371094 175.316406 156.980469 174.707031 157.527344 174.097656 C 157.527344 174.039062 157.589844 174.039062 157.589844 173.976562 C 160.332031 171.355469 163.195312 168.859375 166.179688 166.542969 C 177.875 157.652344 191.765625 151.4375 206.933594 148.941406 C 205.835938 158.625 203.460938 167.398438 199.746094 175.316406 Z M 199.746094 175.316406 "/>
</g>
</svg>
